X:11381
T:Muieira d'Ibias
R:muieira
C:Trad.
Z:Mtodu de Gaita
M:6/8
L:1/8
Q:2/4=100
K:F
({GAG}C) =B, C
|:FEF GAB|c2 c FGF|
~E D c B ~A G|~AGF C =B, C|FEF GAB|
~c2 c FGF|~E D c B ~A G|[1 F3 C =B, C:|
[2 F3 cdc||:BcB GAB|~AGF FEF|
FEF FEF|~AGF c~dc:|BcB GAB|
~AGF FEF|GAB c~dc|~AGF c~dc|
BcB GAB|~AGF FEF|GAB GEG|
F3 CDE|
K:C
|:~EDE ~EDE|~EDC cBA|
G~AG FED|~EDC CDE|~EDE ~EDE|
~EDC cBA|G~AG F~ED|[1 C3 CDE:|
[2 C2
